X:1
T:Violin Concerto, Op. 34
T:II. Lento - Allegro moderato - Lento
C:Oscar Rieding
L:1/8
Q:1/4=60
M:4/8
K:G
V:1 treble nm="Violin" snm="Vln."
V:1
"^Lento"!p! B,2 | E2 F2 |!<(! G2 A2!<)! | !>!B F3 | !fermata!z4 |!p! G2 A2 |!<(! B2 e2!<)! | %7
 !>!d A3 | !fermata!z4 |!mf! (c>a) (a>g) | (g>f) (f>e) |!f! b2 f2 | f2 f2 | (a>g) (g>f) | %14
 (gf)!>(!(e^A) | (B/e/!>)!B/=A/) (GF) |!p! !fermata!E3 !fermata!z || %17
[K:C][M:2/4][Q:1/4=120]"^Allegro moderato"!mf! (!>!v=F>G) (!>!E>G) | =F(d/c/) B/A/G/F/ | %19
 (!>!E>G) (!>!^F>A) | G(e/d/) c/d/c/B/ | AA/B/ cc/d/ |!<(! ee/=f/ g^f/g/!<)! |!f! baAB | %24
 (d/c/)c/B/ uc z |!mf! (c/e/)(c/e/) B2 | (uc/e/)(c/e/) B2 | (c/B/)A/B/ (c/d/)e/^f/ | %28
 (g/^f/)g/a/ b z | (g/b/)(g/b/) ^f2 | (g/b/)(g/b/) ^f2 | (!>!a/g/)^f/e/ (d/c/)B/A/ | %32
!>(! (G/A/)(^F/G/) E!>)!!tenuto!E |!mf! (!>!=F>G) (!>!E>G) | F(d/c/) B/A/G/F/ | %35
 (!>!E>G) (!>!^F>A) | G(e/d/) c/d/c/B/ | AA/B/ cc/d/ | e!<(!e/=f/ g^f/g/!<)! |!f! baAB | %40
 (d/c/)c/B/ uc z |!mf! (c/e/)(c/e/) B2 | (c/e/)(c/e/) B2 | (c/B/)A/B/ (c/d/)!open!e/^f/ | %44
 (g/^f/)g/a/ b z | (g/b/)(g/b/) ^f2 | (!open!ue/g/)(e/g/) d2 | (c/B/)A/G/ (^F/E/)D/C/ | %48
 (B,G)!>(! (!fermata!G>^F)!>)! ||[K:G][M:4/8][Q:1/4=60]"^Lento"!p! E2 F2 |!<(! G2 A2!<)! | %51
 !>!B F3 | !fermata!z4 |!p! G2 A2 |!<(! B2 e2!<)! | !>!d A3 | !fermata!z4 |!mf! (c>a) (a>g) | %58
 (g>f) (f>e) |!f! b2 g2 | f2 f2 | (a>g) (g>f) | (gf)!>(!(e^A) | (B/!>)!e/B/=A/) (GF) |!p! E4 | z4 | %66
 z4 | z4 | !fermata!z4 |] %69

